X: 6735
T: Champion Of The Seas
R: hornpipe
M: 4/4
K: Dmajor
(fe)|:dfaf dfBg|fAde fdBe|GBdg fedf|edcB Agfe|
dfaf dfBg|fAde fdBe|GBdg fede|1 d2 (ded) d1 (fe):|2 d2 (ded) d1 (cd)||
|:(eA) (3AAA (fA) (3AAA|g2 f2 (eA) (3AAA|eAfA gAfA|edcB Agfe|
dfaf dfB(f|f)Ade fdBe|GBdg fedf|1 d2 (3(ded) d2 (cd):|2 d2 (3(ded) d4||

